markets/ETC.svg

<svg width="42" height="42" viewBox="0 0 42 42" fill="none" xmlns="http://www.w3.org/2000/svg">
<g clip-path="url(#clip0_7277_55698)">
<path d="M21 42C32.598 42 42 32.598 42 21C42 9.40202 32.598 0 21 0C9.40202 0 0 9.40202 0 21C0 32.598 9.40202 42 21 42Z" fill="#328332"/>
<path d="M20.9856 21.7258L12.1642 20.9685L20.9842 15.9784V21.7258H20.9856ZM20.9856 27.5796V36.6883C17.9183 31.9134 14.5372 26.6582 11.8125 22.4044C15.0281 24.2156 18.3855 26.1096 20.9856 27.5809V27.5796ZM20.9856 14.3653L11.8125 19.4841L20.9856 5.25V14.3653V14.3653Z" fill="white"/>
<path d="M29.8064 20.9685L20.9851 21.7258V15.9784L29.8051 20.9685H29.8064ZM20.9851 27.5809C23.5839 26.1109 26.9399 24.2156 30.1569 22.4044C27.4321 26.6595 24.0511 31.9147 20.9851 36.687V27.5809V27.5809ZM20.9851 14.3653V5.25L30.1569 19.4841L20.9851 14.3653V14.3653Z" fill="white" fill-opacity="0.601"/>
<path opacity="0.2" fill-rule="evenodd" clip-rule="evenodd" d="M20.9851 21.7258L29.8051 20.9685L20.9851 25.9232V21.7258Z" fill="white"/>
<path opacity="0.603" fill-rule="evenodd" clip-rule="evenodd" d="M20.9849 21.7258L12.1635 20.9685L20.9849 25.9232V21.7258Z" fill="white"/>
</g>
<defs>
<clipPath id="clip0_7277_55698">
<rect width="42" height="42" fill="white"/>
</clipPath>
</defs>
</svg>

<svg xmlns="http://www.w3.org/2000/svg" width="42" height="42" fill="none"><g clip-path="url(#a)"><path fill="#328332" d="M21 42c11.598 0 21-9.402 21-21S32.598 0 21 0 0 9.402 0 21s9.402 21 21 21Z"/><path fill="#fff" d="m20.986 21.726-8.822-.758 8.82-4.99v5.748h.002Zm0 5.854v9.108c-3.068-4.775-6.449-10.03-9.174-14.284 3.216 1.812 6.574 3.706 9.174 5.177v-.001Zm0-13.215-9.174 5.12L20.986 5.25v9.115Z"/><path fill="#fff" fill-opacity=".601" d="m29.806 20.968-8.82.758v-5.748l8.82 4.99Zm-8.82 6.613c2.598-1.47 5.954-3.365 9.17-5.177-2.724 4.256-6.105 9.51-9.17 14.283v-9.106Zm0-13.216V5.25l9.17 14.234-9.17-5.119Z"/><path fill="#fff" fill-rule="evenodd" d="m20.985 21.726 8.82-.758-8.82 4.955v-4.197Z" clip-rule="evenodd" opacity=".2"/><path fill="#fff" fill-rule="evenodd" d="m20.985 21.726-8.821-.758 8.82 4.955v-4.197Z" clip-rule="evenodd" opacity=".603"/></g><defs><clipPath id="a"><path fill="#fff" d="M0 0h42v42H0z"/></clipPath></defs></svg>
